lib/healthicons/icons/solid/typography/K.svg

<svg fill="none" height="48" viewBox="0 0 48 48" width="48" xmlns="http://www.w3.org/2000/svg"><path clip-rule="evenodd" d="m18 23.1716v-11.1716c0-1.1046-.8954-2.00001-2-2.00001-1.1046.00001-2 .89541-2 2.00001v24c0 1.1046.8954 2 2 2s2-.8954 2-2v-7.1716l2-2 10.5858 10.5858c.781.7811 2.0474.7811 2.8284 0 .7811-.781.7811-2.0474 0-2.8284l-10.5858-10.5858 10.5858-10.5858c.7811-.781.7811-2.0474 0-2.8284-.781-.78107-2.0474-.78107-2.8284 0z" fill="#333" fill-rule="evenodd"/></svg>

<svg width="48" height="48" viewBox="0 0 48 48" fill="none" xmlns="http://www.w3.org/2000/svg">
<path fill-rule="evenodd" clip-rule="evenodd" d="M18 23.1716L18 12C18 10.8954 17.1046 9.99999 16 9.99999C14.8954 10 14 10.8954 14 12L14 36C14 37.1046 14.8954 38 16 38C17.1046 38 18 37.1046 18 36L18 28.8284L20 26.8284L30.5858 37.4142C31.3668 38.1953 32.6332 38.1953 33.4142 37.4142C34.1953 36.6332 34.1953 35.3668 33.4142 34.5858L22.8284 24L33.4142 13.4142C34.1953 12.6332 34.1953 11.3668 33.4142 10.5858C32.6332 9.80473 31.3668 9.80473 30.5858 10.5858L18 23.1716Z" fill="#333333"/>
</svg>
